X: 36642
T: Shannandoah Falls
R: hornpipe
M: 4/4
K: Amajor
cd|:e2ef edcb|AB(3cBA d2 d2|cBAc BAFE|ABAF EFAB|
e2ef edcb|AB(3cBA d2 d2|cBAc BAFE|1 A A3ABcd:|2 A A3 ABAG||
F4 B4|A2 B4 ed|ABcA BcAB|cABc BAFE|F4 B4|
A2 B4 ed|ABcA BcAB|cBAc BAFE|1 A A3 ABA2:|2 A z3 A,4||

